X: 1276
T: Bill McGlashan's Polka
B: australian traditional tunes wiki
M:2/4
L:1/16
R: Polka
Q: 1/4=100
K:G
V:1 
"G"B2d2 G3A|B2B2B4|B2d2 d3B|"D7"c2c2 c4|
c2e2 e3f|"G"e2d2 d4|1c2d2 e3f|"G"e2d2 d4:|2"D7"d2c2 B3A|"G"G4G2z2||
|:"G"d2B2 G3F|G2D2 D3G|"C"F2E2 E3^D|E6E2|
"D7"c2B2 A3G|F2E2 F3E|1"G"E2D2 D3^C|D6D2:|2"D7"D2D2 c3F|"G"G6G2||
% abcbook-tune_id 6342d53a36c835bbe37d2afd


% abcbook-boost 0
% abcbook-tablature 
% abcbook-transpose 
% abcbook-lastupdated 1665324357114
% abcbook-soundfonts 
% abcbook-repeats 1
% NFF Book 2006

